icons/glyphs/glyph-image-small.svg

<?xml version="1.0" encoding="UTF-8" standalone="no"?><svg height="16" viewBox="0 0 4.2333333 4.2333333" width="16" xmlns="http://www.w3.org/2000/svg"><sodipodi:namedview/><metadata><rdf:RDF><cc:Work><dc:format>image/svg+xml</dc:format><dc:type/><dc:title/></cc:Work></rdf:RDF></metadata><path d="m3.4872603-.0006232c-.412307-.00001522-.7474449.33522123-.7474291.74764967-.0000158.41242843.3351221.74630763.7474291.74629233.4123077.0000153.7460885-.3338639.746073-.74629233.0000155-.41242844-.3337653-.74766489-.746073-.74764967zm-2.1502787 2.1324401-1.3369816 1.4441891v.6567041h4.2333333v-.6567041l-1.2107844-1.1617071-.7104091.5923294z" fill="#d0d0d0" stroke-width=".253038"/></svg>

<?xml version="1.0" encoding="UTF-8" standalone="no"?>
<!-- Created with Inkscape (http://www.inkscape.org/) -->

<svg
     xmlns:dc="http://purl.org/dc/elements/1.1/"
     xmlns:cc="http://creativecommons.org/ns#"
     xmlns:rdf="http://www.w3.org/1999/02/22-rdf-syntax-ns#"
     xmlns:svg="http://www.w3.org/2000/svg"
     xmlns="http://www.w3.org/2000/svg"
     xmlns:sodipodi="http://sodipodi.sourceforge.net/DTD/sodipodi-0.dtd"
     xmlns:inkscape="http://www.inkscape.org/namespaces/inkscape"
     width="16"
     height="16"
     viewBox="0 0 4.2333333 4.2333333"
     version="1.1"
     id="svg8"
     inkscape:version="0.92+devel (fa9b7f7a5b, 2017-07-19, custom)"
     sodipodi:docname="glyph-image-small.svg">
    <defs
         id="defs2" />
    <sodipodi:namedview
         id="base"
         pagecolor="#002466"
         bordercolor="#ffffff"
         borderopacity="0.38039216"
         inkscape:pageopacity="1"
         inkscape:pageshadow="2"
         inkscape:zoom="21.784276"
         inkscape:cx="9.5431984"
         inkscape:cy="10.755753"
         inkscape:document-units="px"
         inkscape:current-layer="svg8"
         inkscape:document-rotation="0"
         showgrid="false"
         inkscape:showpageshadow="false"
         borderlayer="true"
         inkscape:window-width="1920"
         inkscape:window-height="1051"
         inkscape:window-x="0"
         inkscape:window-y="0"
         inkscape:window-maximized="1"
         units="px" />
    <metadata
         id="metadata5">
        <rdf:RDF>
            <cc:Work
                 rdf:about="">
                <dc:format>image/svg+xml</dc:format>
                <dc:type
                     rdf:resource="http://purl.org/dc/dcmitype/StillImage" />
                <dc:title></dc:title>
            </cc:Work>
        </rdf:RDF>
    </metadata>
    <path
         style="opacity:1;fill:#d0d0d0;stroke-width:0.25303757"
         d="M 3.4872603,-6.2319966e-4 C 3.0749533,-6.3842156e-4 2.7398154,0.33459803 2.7398312,0.74702647 2.7398154,1.1594549 3.0749533,1.4933341 3.4872603,1.4933188 3.899568,1.4933341 4.2333488,1.1594549 4.2333333,0.74702647 4.2333488,0.33459803 3.899568,-6.3842156e-4 3.4872603,-6.2319966e-4 Z M 1.3369816,2.1318169 0,3.576006 V 4.2327101 H 4.2333333 V 3.576006 L 3.0225489,2.4142989 2.3121398,3.0066283 Z"
         id="path904"
         inkscape:connector-curvature="0"
         sodipodi:nodetypes="ccccccccccccc"
         inkscape:label="#" />
</svg>
